svg/icon/nlc2.svg

<svg height="32" viewBox="0 0 32 32" width="32" xmlns="http://www.w3.org/2000/svg" xmlns:xlink="http://www.w3.org/1999/xlink"><defs><linearGradient id="a" x1="50%" x2="50%" y1="0%" y2="100%"><stop offset="0" stop-color="#fff" stop-opacity=".5"/><stop offset="1" stop-opacity=".5"/></linearGradient><circle id="b" cx="16" cy="15" r="15"/><filter id="c" height="111.7%" width="111.7%" x="-5.8%" y="-4.2%"><feOffset dy=".5" in="SourceAlpha" result="shadowOffsetOuter1"/><feGaussianBlur in="shadowOffsetOuter1" result="shadowBlurOuter1" stdDeviation=".5"/><feComposite in="shadowBlurOuter1" in2="SourceAlpha" operator="out" result="shadowBlurOuter1"/><feColorMatrix in="shadowBlurOuter1" values="0 0 0 0 0   0 0 0 0 0   0 0 0 0 0  0 0 0 0.199473505 0"/></filter><path id="d" d="m18.1514006 12.7186544-1.9427835-3.81604259c.4041318-.88045751.6061977-1.37873912.6061977-1.49484482 0-.41262136-.2716049-.71521036-.8148148-.90776699h5.9481481c-.7333333.33009709-1.3851851 1.15533981-1.9555555 2.47572816zm-2.9160933 5.9280737-.9056777 1.841136h5.3370371c2.4172839 0 4.0333333-.4538835 4.8481481-1.3616505l-2.8518518 4.3737864c-8.5283951 0-13.39012349 0-14.58518522 0 1.57530864-.302589 3.16419752-2.2006472 4.76666662-5.6941748.5393425-1.0741952 1.0347912-2.0653726 1.4863464-2.973532zm-10.2353073.6032719c1.18148148-.7014563 5.5-8.1715147 5.5-10.27427184 0-.49514564-.2985251-.96278318-.89557528-1.40291263h4.64372338l4.0333334 7.92233007 3.9111111-7.92233007h4.8074074c-2.037037.53640777-6.0703704 10.14653657-6.0703704 11.26456307 0 .2200648.0408061.3576052.1224181.4126214h-4.2372329l-3.6259259-7.2621359-3.58446418 7.2621359z"/><filter id="e" height="120.6%" width="115.9%" x="-8%" y="-7.4%"><feOffset dy=".5" in="SourceAlpha" result="shadowOffsetOuter1"/><feGaussianBlur in="shadowOffsetOuter1" result="shadowBlurOuter1" stdDeviation=".5"/><feColorMatrix in="shadowBlurOuter1" values="0 0 0 0 0   0 0 0 0 0   0 0 0 0 0  0 0 0 0.204257246 0"/></filter></defs><g fill="none" fill-rule="evenodd"><use fill="#000" filter="url(#c)" xlink:href="#b"/><use fill="#f28f01" xlink:href="#b"/><use fill="url(#a)" xlink:href="#b"/><circle cx="16" cy="15" r="14.5" stroke="#000" stroke-opacity=".097"/><use fill="#000" filter="url(#e)" xlink:href="#d"/><use fill="#fff" xlink:href="#d"/></g></svg>

<svg xmlns="http://www.w3.org/2000/svg" xmlns:xlink="http://www.w3.org/1999/xlink" width="32" height="32" viewBox="0 0 32 32">
  <defs>
    <linearGradient id="nlc2-c" x1="50%" x2="50%" y1="0%" y2="100%">
      <stop offset="0%" stop-color="#FFF" stop-opacity=".5"/>
      <stop offset="100%" stop-opacity=".5"/>
    </linearGradient>
    <circle id="nlc2-b" cx="16" cy="15" r="15"/>
    <filter id="nlc2-a" width="111.7%" height="111.7%" x="-5.8%" y="-4.2%" filterUnits="objectBoundingBox">
      <feOffset dy=".5" in="SourceAlpha" result="shadowOffsetOuter1"/>
      <feGaussianBlur in="shadowOffsetOuter1" result="shadowBlurOuter1" stdDeviation=".5"/>
      <feComposite in="shadowBlurOuter1" in2="SourceAlpha" operator="out" result="shadowBlurOuter1"/>
      <feColorMatrix in="shadowBlurOuter1" values="0 0 0 0 0   0 0 0 0 0   0 0 0 0 0  0 0 0 0.199473505 0"/>
    </filter>
    <path id="nlc2-e" d="M18.1514006,12.7186544 L16.2086171,8.90261181 C16.6127489,8.0221543 16.8148148,7.52387269 16.8148148,7.40776699 C16.8148148,6.99514563 16.5432099,6.69255663 16,6.5 C18.8790123,6.5 20.8617284,6.5 21.9481481,6.5 C21.2148148,6.83009709 20.562963,7.65533981 19.9925926,8.97572816 L18.1514006,12.7186544 Z M15.2353073,18.6467281 L14.3296296,20.4878641 C16.2308642,20.4878641 18.0098765,20.4878641 19.6666667,20.4878641 C22.0839506,20.4878641 23.7,20.0339806 24.5148148,19.1262136 L21.662963,23.5 C13.1345679,23.5 8.27283951,23.5 7.07777778,23.5 C8.65308642,23.197411 10.2419753,21.2993528 11.8444444,17.8058252 C12.3837869,16.73163 12.8792356,15.7404526 13.3307908,14.8322932 L15.2353073,18.6467281 Z M5,19.25 C6.18148148,18.5485437 10.5,11.0784853 10.5,8.97572816 C10.5,8.48058252 10.2014749,8.01294498 9.60442472,7.57281553 L14.2481481,7.57281553 L18.2814815,15.4951456 L22.1925926,7.57281553 L27,7.57281553 C24.962963,8.1092233 20.9296296,17.7193521 20.9296296,18.8373786 C20.9296296,19.0574434 20.9704357,19.1949838 21.0520477,19.25 L16.8148148,19.25 L13.1888889,11.9878641 L9.60442472,19.25 L5,19.25 Z"/>
    <filter id="nlc2-d" width="115.9%" height="120.6%" x="-8%" y="-7.4%" filterUnits="objectBoundingBox">
      <feOffset dy=".5" in="SourceAlpha" result="shadowOffsetOuter1"/>
      <feGaussianBlur in="shadowOffsetOuter1" result="shadowBlurOuter1" stdDeviation=".5"/>
      <feColorMatrix in="shadowBlurOuter1" values="0 0 0 0 0   0 0 0 0 0   0 0 0 0 0  0 0 0 0.204257246 0"/>
    </filter>
  </defs>
  <g fill="none" fill-rule="evenodd">
    <use fill="#000" filter="url(#nlc2-a)" xlink:href="#nlc2-b"/>
    <use fill="#F28F01" xlink:href="#nlc2-b"/>
    <use fill="url(#nlc2-c)" style="mix-blend-mode:soft-light" xlink:href="#nlc2-b"/>
    <circle cx="16" cy="15" r="14.5" stroke="#000" stroke-opacity=".097"/>
    <g>
      <use fill="#000" filter="url(#nlc2-d)" xlink:href="#nlc2-e"/>
      <use fill="#FFF" xlink:href="#nlc2-e"/>
    </g>
  </g>
</svg>
